X:1
T:Whiskey for My Johnny
M:4/4
L:1/4
K:G
 z2 D2| G B G D| G B G D| G B z2| G B z2| d d c B| A A F D| F A B3/2 B/2|\
 A G z2|

